X:1
T:Ardir alla guerra
T:Ardir alla guerra
T:Gio.Girolamo Kapsperger
C:Gio.Girolamo Kapsperger
%%score [ 1 2 ] { ( 3 5 ) | 4 }
L:1/8
Q:1/4=120
M:3/4
K:C
V:1 treble nm="Soprano 1" snm="S 1"
V:2 treble nm="Soprano 2" snm="S 2"
V:3 treble nm="BC" snm="BC"
V:5 treble 
V:4 bass 
V:1
 c2 c2 c2 | c2 c2 c2 | d2 d2 e2 | d4 B2 | G2 G2 G2 | A2 A2 B2 | c2 c2 c2 | d2 d2 e2 | ff d4 | c6 :| %10
w: Ar- dir, ar-|dir al- la|guer' al- la|guer- ra,|poi che'l tam-|bu- ro rim-|bom- ba, gia|so- n'al- lar-|mi la trom-|ba.|
w: ||||||||||
w: ||||||||||
w: ||||||||||
w: ||||||||||
w: ||||||||||
[M:4/4] z2 e2 e3 d | d3 e c4 | A4 B2 c2 | d4 d4 | d2 dd d3 c | B2 B2 B2 BB | c2 d2 e3 d | f3 e d4 | %18
w: Pa- ven- to'il|gra- ve'hor- ror,|te- mo gl'in-|gan- ni,|o- dio'i mor- tal af-|fan- ni, che'han- no con|gion- ti, Mar- t'e|Mor- te'i- dan-|
w: Han l'ar- m'e-|ter- ni'ho- nor|glo- rie'im- mor-|ta- li,|ne te- mon ar- chi'o|stra- li, c'han- no dis-|gion- ti Mar- t'e|Mor- te'i ma-|
w: Sof- fer- to'ho|l'a- spro duol,|lo stra- tio'in-|de- gno,|lun- ge'il no- cen- te|sde- gno, c'han- no com-|mu- ni Mar- t'e|Mor- te'i Reg-|
w: Chi pre- gia|Mar- te'al- tier,|Mor- te di-|spre- gi,|eb- a- mi'e- ter- ne|fe- gi, c'han- no di-|stin- ti Mar- t'e|Mor- te'i pre-|
w: Su dun- que|spe- ra'o cor,|ne'l dan- no|te- mi,|sprez- za'i pe- ri- gli'es-|tre- mi, poi c'han di-|ver- si Mar- t'e|Mor- te'i pre-|
w: Hor dun- que|pren- di'ar- dir,|can- gia sem-|bian- ti,|spie- g'a- ni- mo- so'i|can- ti, poi c'han con-|tra- ri Mar- t'e|Mor- te'i van-|
"^Ardir etc.""^Ardir etc""^Ardir etc" c8 |] %19
w: ni.|
w: li.|
w: no.|
w: gi.|
w: mi.|
w: ti.|
V:2
 A2 A2 G2 | A2 A2 G2 | A2 A2 c2 | B4 B2 | E2 E2 D2 | E2 F2 G2 | A2 A2 G2 | A2 B2 c2 | dc c2 B2 | %9
w: Ar- dir, ar-|dir al- la|guer' al- la|guer- ra,|poi che'l tam-|bu- ro rim-|bom- ba, gia|so- n'al- lar-|mi la trom- *|
 c6 :|[M:4/4] z8 | z8 | z8 | z8 | z8 | z8 | z8 | z8 | z8 |] %19
w: ba.||||||||||
V:3
 [EAc]2 [EGc]2 [DB]2 | [Ac]2 [Ec]2 [Gc]2 | [FA]2 [FA]2 [Ec]2 | [DB]4 [DG]2 | [EGc]2 [Gc]2 [DB]2 | %5
 [Ac]2 [FA]2 [DB]2 | [Ac]2 [EA]2 [CG]2 | [DF]2 [FA]2 [Ec]2 | [FA]2 [Gd]4 | [EGc]6 :| %10
[M:4/4] [EGc]8 | [GBd]4 [EG]4 | [Ec]4 [GB]2 [Ec]2 | [Bd]8 | [DB]4 [Ad]4 | [DGB]6 [Fd]2 | %16
 [Gc]2 [FA]2 [EG]2 [DG]2 | c6 B2 |"^Ardir etc""^Ardir etc""^Ardir etc" [EGc]8 |] %19
V:4
 A,2 C2 G,2 | F,2 A,2 E,2 | D,2 F,2 C,2 | G,2 B,,2 G,,2 | C,2 E,2 B,,2 | A,,2 D,2 G,2 | %6
 F,2 A,2 E,2 | D,2 F,2 C,2 | F,2 G,3 G, | C,6 :|[M:4/4] z2 C,2 C,4 | B,,4 C,4 | C,4 B,,2 A,,2 | %13
 G,,8 | G,4 ^F,4 | G,4 G,2 F,2 | E,2 D,2 C,2 B,,2 | A,,2 F,,2 G,,4 | C,8 |] %19
V:5
 x6 | x6 | x6 | x6 | x6 | x6 | x6 | x6 | x6 | x6 :|[M:4/4] x8 | x8 | x8 | x8 | x8 | x8 | x8 | %17
 E2 A2 G4 | x8 |] %19

